X:1
T:Title
%%score { ( 1 4 ) | ( 2 3 ) }
L:1/8
Q:1/4=87
M:6/8
K:C
V:1 treble nm="Grand Piano"
V:4 treble 
V:2 bass 
V:3 bass 
V:1
 [EG]2 [EG] [EG][FA][EG] | [EG][FA][FB] [Ec]2 [EG] | A2 A AB[Ec] | .[G,DG]2 [G,CE] [CE]2 D | %4
w: N.~L.~Glover * * * *||||
 E2 E EF[CEG] | [CFA]2 [CFA] [Ac]BA | G2 G ABc | c2 B [Ec]3 | G2- [EG] c2- [Ec] | G2- [EG] z2 C | %10
w: ||||||
 [DF]2 [DF] [FA][EG][G,DF] | E3 z3 | A2 A ABc | [Ec]3 G3 | e2 c .[DFc]2 [B,Fd] | [CEc]6 |] %16
w: ||||||
V:2
 [C,C]2 [C,C] [C,C]2 [C,C] | [C,C]2 [C,G,] [C,G,]2 [C,C] | z3 .F3 | z FC, z2 B, | %4
 [C,G,C]2 [C,G,C] CDC, | F,2 F, z[K:treble] G[F,CF] | z3 .C3 | [G,E]2 [G,D] [C,G,]3 | %8
 [C,C]2 [C,C] [C,G,]2 [C,G,] | [C,C]2 [C,C] [C,G,C]2 [C,G,] | z3 .G,3 | C,2 C, C,3 | %12
 [F,CF]2 [F,CF] [F,CF]2 [F,A,F] | [C,G,]2 C, [E,C]2 E, | [G,CG]2 [G,CE][K:bass] z BG,, | C,6 |] %16
V:3
 x6 | x6 | [F,CF]2 [F,CF] [F,C][D,G,][C,G,] | .B,,3 G,,3 | z3 .[C,G,]3 | z3 .[F,C]3[K:treble] | %6
 [E,C]2 [E,C] [F,F]-[F,B,F][F,A,F] | x6 | x6 | x6 | [G,,G,]2 [G,,G,] G,,A,,B,, | x6 | x6 | x6 | %14
 z3[K:bass] .G,,3 | x6 |] %16
V:4
 x6 | x6 | x6 | z3 G,3 | x6 | x6 | x6 | x6 | .E3 .E3 | .E3 E3 | x6 | [G,C]2 C [CEG]3 | x6 | %13
 z2 G, z2 C | x6 | x6 |] %16

